icons/svg/transport/aeroway_fuel.svg

<?xml version="1.0" encoding="UTF-8" standalone="no"?>
<!-- Created with Inkscape (http://www.inkscape.org/) -->

<svg
   xmlns:dc="http://purl.org/dc/elements/1.1/"
   xmlns:cc="http://creativecommons.org/ns#"
   xmlns:rdf="http://www.w3.org/1999/02/22-rdf-syntax-ns#"
   xmlns:svg="http://www.w3.org/2000/svg"
   xmlns="http://www.w3.org/2000/svg"
   xmlns:sodipodi="http://sodipodi.sourceforge.net/DTD/sodipodi-0.dtd"
   xmlns:inkscape="http://www.inkscape.org/namespaces/inkscape"
   version="1.0"
   width="580"
   height="580"
   id="svg2"
   sodipodi:version="0.32"
   inkscape:version="0.91 r"
   sodipodi:docname="aeroway_fuel.svg"
   inkscape:output_extension="org.inkscape.output.svg.inkscape">
  <metadata
     id="metadata10">
    <rdf:RDF>
      <cc:Work
         rdf:about="">
        <dc:format>image/svg+xml</dc:format>
        <dc:type
           rdf:resource="http://purl.org/dc/dcmitype/StillImage" />
        <cc:license
           rdf:resource="http://web.resource.org/cc/PublicDomain" />
        <dc:language>en</dc:language>
        <dc:title></dc:title>
      </cc:Work>
    </rdf:RDF>
  </metadata>
  <sodipodi:namedview
     inkscape:window-height="1004"
     inkscape:window-width="1920"
     inkscape:pageshadow="2"
     inkscape:pageopacity="0.0"
     guidetolerance="10.0"
     gridtolerance="10.0"
     objecttolerance="10.0"
     borderopacity="1.0"
     bordercolor="#666666"
     pagecolor="#ffffff"
     id="base"
     showgrid="false"
     inkscape:zoom="0.25"
     inkscape:cx="859.61382"
     inkscape:cy="266.77893"
     inkscape:window-x="1680"
     inkscape:window-y="0"
     inkscape:current-layer="svg2"
     inkscape:window-maximized="1" />
  <defs
     id="defs4">
    <inkscape:perspective
       sodipodi:type="inkscape:persp3d"
       inkscape:vp_x="0 : 290 : 1"
       inkscape:vp_y="0 : 1000 : 0"
       inkscape:vp_z="580 : 290 : 1"
       inkscape:persp3d-origin="290 : 193.33333 : 1"
       id="perspective12" />
    <style
       type="text/css"
       id="style6">
   
    .fil0 {fill:#EF7900}
   
  </style>
    <inkscape:perspective
       id="perspective6807"
       inkscape:persp3d-origin="29.116032 : 19.410688 : 1"
       inkscape:vp_z="58.232063 : 29.116032 : 1"
       inkscape:vp_y="0 : 1000 : 0"
       inkscape:vp_x="0 : 29.116032 : 1"
       sodipodi:type="inkscape:persp3d" />
    <inkscape:perspective
       id="perspective6954"
       inkscape:persp3d-origin="290 : 193.33333 : 1"
       inkscape:vp_z="580 : 290 : 1"
       inkscape:vp_y="0 : 1000 : 0"
       inkscape:vp_x="0 : 290 : 1"
       sodipodi:type="inkscape:persp3d" />
    <marker
       viewBox="0 0 10 10"
       refY="5"
       refX="10"
       orient="auto"
       markerWidth="4"
       markerUnits="strokeWidth"
       markerHeight="3"
       id="ArrowStart">
      <path
         id="path2295"
         d="M 10 0 L 0 5 L 10 10 z" />
    </marker>
    <marker
       viewBox="0 0 10 10"
       refY="5"
       refX="0"
       orient="auto"
       markerWidth="4"
       markerUnits="strokeWidth"
       markerHeight="3"
       id="ArrowEnd">
      <path
         id="path2292"
         d="M 0 0 L 10 5 L 0 10 z" />
    </marker>
    <inkscape:perspective
       id="perspective7597"
       inkscape:persp3d-origin="178.5405 : 158.483 : 1"
       inkscape:vp_z="357.08099 : 237.7245 : 1"
       inkscape:vp_y="0 : 1000 : 0"
       inkscape:vp_x="0 : 237.7245 : 1"
       sodipodi:type="inkscape:persp3d" />
    <marker
       viewBox="0 0 10 10"
       refY="5"
       refX="10"
       orient="auto"
       markerWidth="4"
       markerUnits="strokeWidth"
       markerHeight="3"
       id="marker8025">
      <path
         id="path8027"
         d="M 10,0 L 0,5 L 10,10 L 10,0 z " />
    </marker>
    <marker
       viewBox="0 0 10 10"
       refY="5"
       refX="0"
       orient="auto"
       markerWidth="4"
       markerUnits="strokeWidth"
       markerHeight="3"
       id="marker8021">
      <path
         id="path8023"
         d="M 0,0 L 10,5 L 0,10 L 0,0 z " />
    </marker>
    <inkscape:perspective
       id="perspective8018"
       inkscape:persp3d-origin="205.96652 : 131.6262 : 1"
       inkscape:vp_z="411.93304 : 197.4393 : 1"
       inkscape:vp_y="0 : 1000 : 0"
       inkscape:vp_x="0 : 197.4393 : 1"
       sodipodi:type="inkscape:persp3d" />
    <inkscape:perspective
       id="perspective8269"
       inkscape:persp3d-origin="99.087723 : 77.339676 : 1"
       inkscape:vp_z="198.17545 : 116.00951 : 1"
       inkscape:vp_y="0 : 1000 : 0"
       inkscape:vp_x="0 : 116.00951 : 1"
       sodipodi:type="inkscape:persp3d" />
  </defs>
  <g
     id="g1327">
    <path
       d="M 66.275,1.768 C 24.94,1.768 1.704,23.139 1.704,66.804 L 1.704,516.927 C 1.704,557.771 22.598,579.156 63.896,579.156 L 515.92,579.156 C 557.227,579.156 578.149,558.84 578.149,516.927 L 578.149,66.804 C 578.149,24.203 557.227,1.768 514.627,1.768 C 514.624,1.768 66.133,1.625 66.275,1.768 z"
       style="fill:#111111;stroke:#eeeeee;stroke-width:3.40799999"
       id="path1329" />
  </g>
  <g
     id="g2319"
     transform="translate(879.29125,36.805119)">
    <path
       id="path2323"
       style="fill:#ffffff;stroke:none"
       d="" />
  </g>
  <g
     id="g2325"
     transform="translate(879.29125,36.805119)">
    <path
       id="path2329"
       style="fill:#ffffff;stroke:none"
       d="" />
  </g>
  <path
     style="fill:#ffffff;fill-opacity:1;fill-rule:evenodd;stroke:none"
     d="m 132.26069,261.80329 c -6.72732,0 -13.43296,4.86215 -13.43296,12.63988 l -0.14871,250.02168 13.82952,0 0.12392,19.77768 126.96877,-0.0744 0.0992,-19.70333 11.89635,0.0991 0,-252.69836 c 10e-6,-5.3899 -3.1221,-10.06233 -8.99661,-10.06233 l -130.33942,0 z m 21.23994,27.63424 83.20012,0 c 4.60648,0 8.22832,1.87606 8.22832,8.2283 l 0,65.72735 c 0,4.45219 -2.37996,7.68306 -7.46001,7.68306 L 153.7237,370.8532 c -4.83648,0 -8.99662,-3.57318 -8.99662,-8.77358 l 0.42133,-64.63683 c 0,-5.17389 3.5846,-8.00526 8.35222,-8.00526 z"
     id="path1897"
     inkscape:connector-curvature="0" />
  <path
     d="m 119.4381,347.74088 -12.70657,-0.0752 c -0.0824,51.70396 0.29442,153.74442 0.50976,155.49035 0.45969,3.72697 0.18172,7.58812 -0.77521,11.1057 -19.91963,50.1813 -84.375315,27.13299 -75.223444,-21.69633 20.100712,-48.43443 48.285979,-81.20847 62.313775,-138.33505 l 1.248764,42.46586 c -12.624548,24.56652 -34.896775,67.71126 -52.16941,103.77572 -1.455226,33.29698 38.154667,44.26731 50.560072,8.52748 5.528265,-62.56029 -0.207846,-130.75276 -0.311769,-196.12915 8.061382,-23.96501 16.956272,-26.25896 25.983292,-25.11751"
     style="fill:#ffffff;fill-opacity:1;fill-rule:evenodd;stroke:none"
     id="path1899"
     inkscape:connector-curvature="0" />
  <g
     id="g1970"
     transform="matrix(0.47982041,0.52535571,-0.52535571,0.47982041,425.65101,-87.047304)"
     style="fill:#ffffff;fill-opacity:1">
    <path
       inkscape:connector-curvature="0"
       style="fill:#ffffff;fill-opacity:1;stroke:none"
       id="path1972"
       d="m 196.91,25.3815 c 0.06,-34 51.309,-34 51.275,0.958 l 0,142.6915 199.764,120.064 0,52.717 -198.805,-65.43 0,106.647 46.008,35.944 0,41.694 -70.927,-22.046 -70.927,22.046 0,-41.694 45.529,-35.944 0,-106.647 L 0,341.812 0,289.095 196.91,169.031 l 0,-143.6495 z" />
  </g>
</svg>

<svg width="580" height="580" viewBox="0 0 580 580" fill="none" xmlns="http://www.w3.org/2000/svg">
<g clip-path="url(#clip0)">
<path d="M66.2751 1.76766C24.9401 1.76766 1.7041 23.1387 1.7041 66.8037V516.927C1.7041 557.771 22.5981 579.156 63.8961 579.156H515.92C557.227 579.156 578.149 558.84 578.149 516.927V66.8037C578.149 24.2027 557.227 1.76766 514.627 1.76766C514.624 1.76766 66.1331 1.62466 66.2751 1.76766Z" fill="#111111" stroke="#EEEEEE" stroke-width="3.408"/>
<path fill-rule="evenodd" clip-rule="evenodd" d="M132.26 261.803C125.533 261.803 118.827 266.665 118.827 274.443L118.679 524.464H132.508L132.632 544.242L259.601 544.168L259.7 524.464L271.596 524.563V271.865C271.596 266.475 268.474 261.803 262.6 261.803H132.26L132.26 261.803ZM153.5 289.437H236.7C241.307 289.437 244.929 291.313 244.929 297.665V363.393C244.929 367.845 242.549 371.076 237.469 371.076L153.723 370.853C148.887 370.853 144.727 367.28 144.727 362.079L145.148 297.442C145.148 292.268 148.733 289.437 153.5 289.437V289.437Z" fill="white"/>
<path fill-rule="evenodd" clip-rule="evenodd" d="M119.438 347.741L106.731 347.666C106.649 399.37 107.026 501.41 107.241 503.156C107.701 506.883 107.423 510.744 106.466 514.262C86.5464 564.443 22.0907 541.395 31.2426 492.566C51.3433 444.131 79.5285 411.357 93.5563 354.23L94.8051 396.696C82.1806 421.263 59.9083 464.408 42.6357 500.472C41.1805 533.769 80.7904 544.739 93.1958 509C98.724 446.439 92.9879 378.247 92.884 312.87C100.945 288.905 109.84 286.611 118.867 287.753" fill="white"/>
<path d="M506.798 28.5795C524.689 12.2971 549.28 39.2211 530.898 55.9768L455.934 124.443L488.709 286.999L461.014 312.294L399.997 176.456L343.969 227.627L347.161 269.045L325.257 289.05L302.807 241.21L257.193 214.527L279.097 194.521L319.826 201.193L375.854 150.022L246.078 76.9615L273.774 51.6668L431.331 97.5055L506.798 28.5795V28.5795Z" fill="white"/>
</g>
<defs>
<clipPath id="clip0">
<path d="M0 0H580V580H0V0Z" fill="white"/>
</clipPath>
</defs>
</svg>
